X: 2967
T: Basket Of Oysters
R: reel
M: 4/4
K: Dmajor
ed|cAAA cded|cAAG FDDd|cAAA cdeg|fdec d2
ed|cAAA cded|cAAG FDDd|cAAA cdeg|fdec d3
A|dfaf g3e|fded cAAA|dfaf gbag|fdec d3
f|a3f g3e|dfed cAAA|dfaf gbag fdec d2||

